actions/symbolic/media-view-subtitles-symbolic.svg

<?xml version="1.0" encoding="UTF-8" standalone="no"?>
<svg
   xmlns:dc="http://purl.org/dc/elements/1.1/"
   xmlns:cc="http://creativecommons.org/ns#"
   xmlns:rdf="http://www.w3.org/1999/02/22-rdf-syntax-ns#"
   xmlns:svg="http://www.w3.org/2000/svg"
   xmlns="http://www.w3.org/2000/svg"
   xmlns:sodipodi="http://sodipodi.sourceforge.net/DTD/sodipodi-0.dtd"
   xmlns:inkscape="http://www.inkscape.org/namespaces/inkscape"
   viewBox="0 0 16 16"
   id="svg2"
   version="1.1"
   inkscape:version="0.91 r13725"
   sodipodi:docname="media-view-subtitles-symbolic.svg">
  <metadata
     id="metadata10">
    <rdf:RDF>
      <cc:Work
         rdf:about="">
        <dc:format>image/svg+xml</dc:format>
        <dc:type
           rdf:resource="http://purl.org/dc/dcmitype/StillImage" />
      </cc:Work>
    </rdf:RDF>
  </metadata>
  <sodipodi:namedview
     pagecolor="#ffffff"
     bordercolor="#666666"
     borderopacity="1"
     objecttolerance="10"
     gridtolerance="10"
     guidetolerance="10"
     inkscape:pageopacity="0"
     inkscape:pageshadow="2"
     inkscape:window-width="640"
     inkscape:window-height="480"
     id="namedview8"
     showgrid="false"
     inkscape:zoom="41.1875"
     inkscape:cx="3.6783005"
     inkscape:cy="8"
     inkscape:current-layer="svg2" />
  <defs
     id="defs3051">
    <style
       type="text/css"
       id="current-color-scheme">
      .ColorScheme-Text {
        color:#bebebe;
      }
      </style>
  </defs>
  <path
     style="color:#bebebe;fill:currentColor;fill-opacity:1;stroke:none"
     class="ColorScheme-Text"
     d="M 2.8571429,3.7140713 C 2.3822857,3.7140713 2,4.0963571 2,4.5712142 L 2,11.428357 C 2,11.903214 2.3822857,12.2855 2.8571429,12.2855 l 10.2857141,0 C 13.617714,12.2855 14,11.903214 14,11.428357 L 14,4.5712142 C 14,4.0963571 13.617714,3.7140713 13.142857,3.7140713 l -10.2857141,0 z m 0.8571428,4.2857143 1.7142857,0 0,0.8571429 -1.7142857,0 0,-0.8571429 z m 2.5714286,0 3.4285714,0 0,0.8571429 -3.4285714,0 0,-0.8571429 z m 4.2857147,0 1.714285,0 0,0.8571429 -1.714285,0 0,-0.8571429 z m -6.8571433,1.7142854 0.8571429,0 0,0.857143 -0.8571429,0 0,-0.857143 z m 1.7142857,0 3.4285715,0 0,0.857143 -3.4285715,0 0,-0.857143 z m 4.2857143,0 2.5714283,0 0,0.857143 -2.5714283,0 0,-0.857143 z"
     id="path6"
     inkscape:connector-curvature="0" />
</svg>

<svg xmlns="http://www.w3.org/2000/svg" viewBox="0 0 16 16">
  <path fill="#bebebe" d="M2.857 3.714A.855.855 0 0 0 2 4.571v6.857c0 .475.382.857.857.857h10.286a.855.855 0 0 0 .857-.857V4.571a.855.855 0 0 0-.857-.857zM3.714 8H5.43v.857H3.714zm2.572 0h3.428v.857H6.286zm4.285 0h1.715v.857H10.57V8zM3.714 9.714h.857v.857h-.857zm1.715 0h3.428v.857H5.43v-.857zm4.285 0h2.572v.857H9.714z"/>
</svg>
